X:5904
T:Seamus Cooley's Jig
O:england
R:double jig
M:6/8
L:1/8
K:G
A|BAB G2E|DB,D D2E|GAB AGE|A3 AGA|
BAB G2E|DB,D D2E|GAB AGE|G3 G2:|
A|BAB d2B|BAB d2B|A2A AGE|A2A AGA|
BAB d2B|BAB d2B|G2B AGE|G3 G2A|
BAB d2B|BAB d2B|ABA AGE|ABA AGA|
BAB G2E|DB,D D2E|GAB AGE|G3 G2||
